melody-of-light/img/icons/kan.svg

<svg width="75" height="26" viewBox="0 0 75 26" fill="none" xmlns="http://www.w3.org/2000/svg">
<path d="M41.1767 12.6277H43.9646L40.1053 17.3118L44.6951 22.5968H41.5784L37.4391 17.7655V22.5968H34.9434V12.6277H37.4391V17.226L41.1767 12.6277Z" fill="#E1E1E3"/>
<path d="M51.3417 22.5961H48.7588L53.1128 12.627H55.7449L60.1358 22.5961H57.5652L54.4412 15.0764L53.4572 17.4646L51.3417 22.5961Z" fill="#E1E1E3"/>
<path d="M72.4118 12.627H74.7625V22.5961H72.6446L67.3498 16.4037V22.5961H65.0107V12.627H67.0937L72.4118 18.8439V12.627Z" fill="#E1E1E3"/>
<path d="M19.655 25.0876H18.6727H7.68936H7.04445H0L13.2455 0.166504L26.5605 25.0876H19.655ZM10.398 19.2656H15.9641L13.186 13.2711L10.398 19.2656Z" fill="#E1E1E3"/>
<path d="M40.0261 7.83484L40.0185 4.61427L38.4389 7.26741H37.8791L36.3071 4.68328V7.83484H35.1416V2.46722H36.1691L38.1781 5.80281L40.1565 2.46722H41.1763L41.1917 7.83484H40.0261Z" fill="#E1E1E3"/>
<path d="M46.3835 6.68464H43.8914L43.416 7.83484H42.1431L44.5355 2.46722H45.7624L48.1625 7.83484H46.859L46.3835 6.68464ZM45.9925 5.74147L45.1413 3.68643L44.2902 5.74147H45.9925Z" fill="#E1E1E3"/>
<path d="M49.1028 2.46722H51.5413C52.124 2.46722 52.6378 2.57968 53.0825 2.80461C53.5324 3.02443 53.88 3.33626 54.1254 3.74011C54.3759 4.14396 54.5011 4.61427 54.5011 5.15103C54.5011 5.68779 54.3759 6.1581 54.1254 6.56195C53.88 6.9658 53.5324 7.28019 53.0825 7.50512C52.6378 7.72493 52.124 7.83484 51.5413 7.83484H49.1028V2.46722ZM51.4799 6.81499C52.0167 6.81499 52.4435 6.66675 52.7605 6.37025C53.0825 6.06864 53.2436 5.66223 53.2436 5.15103C53.2436 4.63983 53.0825 4.23598 52.7605 3.93948C52.4435 3.63787 52.0167 3.48707 51.4799 3.48707H50.345V6.81499H51.4799Z" fill="#E1E1E3"/>
<path d="M59.9774 6.838V7.83484H55.8213V2.46722H59.8777V3.46406H57.0559V4.6296H59.548V5.59578H57.0559V6.838H59.9774Z" fill="#E1E1E3"/>
<path d="M67.8456 5.04368C68.1523 5.14081 68.3926 5.30439 68.5664 5.53443C68.7402 5.75936 68.8271 6.03797 68.8271 6.37025C68.8271 6.84055 68.6431 7.20351 68.275 7.45911C67.9121 7.7096 67.3804 7.83484 66.6801 7.83484H63.9042V2.46722H66.5267C67.181 2.46722 67.682 2.59246 68.0296 2.84295C68.3824 3.09344 68.5587 3.43339 68.5587 3.8628C68.5587 4.12351 68.4948 4.35611 68.367 4.56059C68.2443 4.76507 68.0705 4.9261 67.8456 5.04368ZM65.1388 3.40272V4.66794H66.3733C66.6801 4.66794 66.9127 4.61427 67.0711 4.50691C67.2296 4.39956 67.3088 4.24109 67.3088 4.0315C67.3088 3.8219 67.2296 3.66599 67.0711 3.56375C66.9127 3.45639 66.6801 3.40272 66.3733 3.40272H65.1388ZM66.588 6.89934C66.9152 6.89934 67.1606 6.84567 67.3242 6.73831C67.4929 6.63096 67.5772 6.46482 67.5772 6.23989C67.5772 5.79515 67.2475 5.57277 66.588 5.57277H65.1388V6.89934H66.588Z" fill="#E1E1E3"/>
<path d="M72.6151 5.93317V7.83484H71.3729V5.91783L69.2949 2.46722H70.6138L72.0477 4.85198L73.4816 2.46722H74.7008L72.6151 5.93317Z" fill="#E1E1E3"/>
</svg>

<svg width="75" height="26" fill="none" xmlns="http://www.w3.org/2000/svg"><path d="M41.177 12.628h2.788l-3.86 4.684 4.59 5.285h-3.117l-4.139-4.832v4.832h-2.496v-9.97h2.496v4.599l3.738-4.598zm10.165 9.968h-2.583l4.354-9.969h2.632l4.39 9.97h-2.57l-3.124-7.52-.984 2.388-2.115 5.131zm21.07-9.969h2.35v9.97h-2.117l-5.295-6.193v6.192h-2.34v-9.969h2.084l5.318 6.217v-6.217zM19.655 25.088H0L13.245.167l13.316 24.92h-6.906zm-9.257-5.822h5.566l-2.778-5.995-2.788 5.995zM40.026 7.835l-.008-3.22-1.58 2.652h-.559l-1.572-2.584v3.152h-1.165V2.467h1.027l2.01 3.336 1.977-3.336h1.02l.016 5.368h-1.166zm6.357-1.15h-2.492l-.475 1.15h-1.273l2.392-5.368h1.227l2.4 5.368H46.86l-.476-1.15zm-.39-.944l-.852-2.055-.85 2.055h1.702zm3.11-3.274h2.438c.583 0 1.097.113 1.542.338.45.22.797.531 1.042.935.25.404.376.874.376 1.411s-.125 1.007-.376 1.411a2.492 2.492 0 01-1.042.943c-.445.22-.959.33-1.542.33h-2.438V2.467zm2.377 4.348c.537 0 .964-.148 1.28-.445.323-.301.484-.708.484-1.219 0-.511-.161-.915-.483-1.212-.318-.301-.744-.452-1.281-.452h-1.135v3.328h1.135zm8.497.023v.997h-4.156V2.467h4.057v.997h-2.822V4.63h2.492v.966h-2.492v1.242h2.921zm7.869-1.794c.306.097.547.26.72.49.174.225.261.504.261.836 0 .47-.184.834-.552 1.09-.363.25-.895.375-1.595.375h-2.776V2.467h2.623c.654 0 1.155.125 1.503.376.352.25.529.59.529 1.02 0 .26-.064.493-.192.698a1.289 1.289 0 01-.521.483zm-2.707-1.641v1.265h1.234c.307 0 .54-.054.698-.161a.537.537 0 00.238-.475c0-.21-.08-.366-.238-.468-.158-.108-.39-.161-.698-.161H65.14zm1.449 3.496c.327 0 .573-.053.736-.16.169-.108.253-.274.253-.5 0-.444-.33-.666-.989-.666h-1.45v1.326h1.45zm6.027-.966v1.902h-1.242V5.918l-2.078-3.45h1.319l1.434 2.384 1.434-2.385H74.7l-2.086 3.466z" fill="#E1E1E3"/></svg>
